X:83
T:
S:Efter smeden Cederberg, Hemse.
M:C
L:1/8
K:Gm
D|G2 G ^F D3 A|B B A A G ^F D ^F|
w:U far in-tä ja de tö-si, ja vi ha u ha, u
G2 G ^F D3 A|B G A ^F G2 z::A|
w:far in-tä ja de tö-si, ja vi ha~— så
B B B d B A A c/ A/|B G G B/ G/ A D HD A|
w:gif-tar ja mi ai så fourt~— ʃuŋg fa-ral-lal-la, ʃuŋg fa-ral-lal-la. Så
B B B d/B/ B A A c/ A/|B G A ^F G2 z:|
w:gif-tar ja mi_ ai så fourt~— ʃuŋg fa-ral-la-lal-la-la.
